src/view/frontend/web/svg/heroicons/solid/annotation.svg

<svg viewBox="0 0 20 20" fill="currentColor" xmlns="http://www.w3.org/2000/svg">

<path fill-rule="evenodd" clip-rule="evenodd" d="M18 13V5C18 3.89543 17.1046 3 16 3H4C2.89543 3 2 3.89543 2 5V13C2 14.1046 2.89543 15 4 15H7L10 18L13 15H16C17.1046 15 18 14.1046 18 13ZM5 7C5 6.44772 5.44772 6 6 6H14C14.5523 6 15 6.44772 15 7C15 7.55228 14.5523 8 14 8H6C5.44772 8 5 7.55228 5 7ZM6 10C5.44772 10 5 10.4477 5 11C5 11.5523 5.44772 12 6 12H9C9.55229 12 10 11.5523 10 11C10 10.4477 9.55229 10 9 10H6Z" />
</svg>

<svg xmlns="http://www.w3.org/2000/svg" viewBox="0 0 20 20" fill="currentColor">
  <path fill-rule="evenodd" d="M18 13V5a2 2 0 00-2-2H4a2 2 0 00-2 2v8a2 2 0 002 2h3l3 3 3-3h3a2 2 0 002-2zM5 7a1 1 0 011-1h8a1 1 0 110 2H6a1 1 0 01-1-1zm1 3a1 1 0 100 2h3a1 1 0 100-2H6z" clip-rule="evenodd"/>
</svg>
